X:1
T:The Golden City
T:The Golden City
T:Herbert Howard Booth
T:Herbert Howard Booth  (1862-1926)
T:Public Domain Courtesy of the Cyber Hymnal™
T:Public Domain Courtesy of the Cyber Hymnal™
C:Herbert Howard Booth
Z:Public Domain
Z:Courtesy of the Cyber Hymnal™
%%score ( 1 2 ) ( 3 4 )
L:1/8
Q:1/4=100
M:4/4
K:G
V:1 treble 
V:2 treble 
V:3 bass 
V:4 bass 
V:1
 D>[DG] | [GB]2 [GB]>[GB] [Gc][GB][DA][DG] | E [DG]3 z2 G>[GA] | [GB]2 [GB]>[Ac] [FA]2 [FA]>[FB] | %4
w: 1.~I’ve a|home fair and bright in yon- der|ci- ty, To its|gates I am march- ing a-|
w: 2.~It is|true on the way to yon- der|ci- ty, I’ve to|cross o’er a cold roll- ing|
w: 3.~Do you|know there’s no place in yon- der|ci- ty, For a|soul that is bur- dened with|
 G6 D>[DG] | [GB]2 [GB]>[GB] [Gc][GB][DA][DG] | E [DG]3 z2 [DG]>[DG] | %7
w: long; When my|fight- ing for Je- sus here is|o- ver, I shall|
w: flood; But I|trust Him to guide me by whose|pi- ty I’ve been|
w: guilt? Do you|know that no sin can ev- er|en- ter? Hast- en|
 [EG]2 [EG]>[EG] [Ge]2 [Gd]>[GB] | [FA]6 [FA]2 | [GB]3 [Gc] [Gd]2 [GB]2 | [EA]3 [EG] [DF] [CE]3 | %11
w: then take my place with the|throng That|face to face be-|holds the Sav- ior,|
w: led to the sin- cleans- ing|blood; As|He has said He’ll|ne- ver leave me,|
w: then to the blood that was|spilt To|cleanse from sin, and|with me jour- ney|
 D2 [Fe]2 [Gd]2 [GB]2 | [FB]3 [FA] G2 z2 ||"^Refrain" [B,D]2 [B,G]>[CA] [DB]2 [DG]2 | %14
w: In whose praise is|raised its song.||
w: I will trust my|friend, my God.|Up in the gold- en|
w: To the ci- ty|God has built.||
 [Ec] [Ge]3 z2 [Ec]>[Ge] | [Gd]2 [GB]>[FA] [EG]2 [DF]>[^CG] | [FA]4 z2 [GB]>[Gc] | %17
w: |||
w: ci- ty There’s a|man- sion to me will be|giv’n; I am|
w: |||
 [Ge]2 [Gd]>[GB] G2 [FA]>[GB] | [Ed]2 [Ec]>[DB] [CA]2 [CG]>[CE] | D2 [DG]>[DA] [GB]2 [FA]2 | G6 |] %21
w: ||||
w: rich- er by far Than a|queen or a czar, I’m an|heir of the wealth of|Heav’n.|
w: ||||
V:2
 D3/2 x/ | x8 | E x4 G3/2 x3/2 | x8 | G6 D3/2 x/ | x8 | E x7 | x8 | x8 | x8 | x8 | D2 x6 | %12
 x4 G2 x2 || x8 | x8 | x8 | x8 | x4 G2 x2 | x8 | D2 x6 | G6 |] %21
V:3
 [G,B,]>[G,B,] | [G,D]2 [G,D]>[G,D] [G,E][G,D][G,C][G,B,] | [G,C] [G,B,]3 z2 [G,B,]>[G,C] | %3
 [G,D]2 [G,D]>[G,E] [D,C]2 [D,C]>[D,D] | [G,B,]6 [G,B,]>[G,B,] | %5
 [G,D]2 [G,D]>[G,D] [G,E][G,D][G,C][G,B,] | [G,C] [G,B,]3 z2 [G,B,]>[G,B,] | %7
 [E,B,]2 [E,B,]>[E,B,] [C,C]2 [G,B,]>[G,D] | [D,D]6 [D,D]2 | [G,D]3 [G,A,] [G,B,]2 [G,D]2 | %10
 [C,C]3 [C,C] [C,G,] [C,G,]3 | [C,F,]2 [C,A,]2 [B,,B,]2 [G,,D]2 | [D,D]3 [D,C] [G,B,]2 z2 || %13
 [G,,G,]2 [G,,G,]>[G,,G,] [G,,G,]2 [B,,G,]2 | [C,G,] [C,G,]3 z2 [C,C]>[C,C] | %15
 [G,B,]2 [D,D]>[D,C] [E,B,]2 A,>[A,,E,] | [D,F,]4 z2 G,>[G,A,] | %17
 [G,C]2 [G,B,]>[G,D] [B,D]2 [A,D]>[G,D] | [C,C]2 [E,^G,]>[E,G,] A,2 [A,,A,]>[A,,=G,] | %19
 (F,C) [D,B,]>[D,C] [D,D]2 [D,C]2 | [G,B,]6 |] %21
V:4
 x2 | x8 | x8 | x8 | x8 | x8 | x8 | x8 | x8 | x8 | x8 | x8 | x8 || x8 | x8 | x6 A,3/2 x/ | %16
 x6 G,3/2 x/ | x8 | x4 A,2 x2 | D,2 x6 | x6 |] %21

